X:15982
T:Steam Packet. FK.25
M:C
L:1/8
Q:160
C:"Swallows MS 57"
S:Kidson's H'pipe MS,early 20thC.
R:Hornpipe
O:England
A:Leeds
N:
Z:vmp.John Bagnall
K:D
fe |dBAF DFAF | EGBG FAdc | Bggf feed | cdec A2 fe |!
 dBAF DFAF | EGBG FAdc |B2 ge fdec | d2f2d2||!
cd | eAAA fAAA | gAAA eAAA | gAfA eAdf | edcB Agge |!
 dBAF DFAF | EGBG FAdc | B2 ge fdec | d2 f2 d2 ||
